X:450
T: Hills Above Killarney
S: "Passing Time" (Jim & Mary Coogan & friends)
N: one of the numerous "O'Keeffe's"
L: 1/8
M: 2/4
Q: 275
R: polka
K: Dmix
A | d^c/d/ ed | cA A2 | d2 ef | g2 fe |
d^c/d/ ed | cA Ae | (3fga ge | d2-d :|
e | f> e fd | g>e ge | f>e fa | ge ce |
f> e fd | g>e ge | (3fga ge | d2-d :|

